X: 35029
T: Rollicking Boys Of Tandragee, The
R: jig
M: 6/8
K: Dmixolydian
AGA D2D|AGA (cBc)|AGE C2D|EDC EFG|
ABA D2D|AGA cde|dcA GEG|ADD D3:|
Add ded|cde gec|d2d c2c|A2c cAG|
Add ded|cde gec|dcA GEG|ADD D3:|

